X:7231
T:the Primrose polka
O:england
R:Polka
M:2/4
K:D
A2|\
FG^GA BAGA|f2d2 f2d2|FG^GA BAGA|E6 E2|\
EFGA BA^GA|e2c2 c2B2\
|1 ABcB AGE=F|F6 :|2 ABcB AGEF|D6 ||
|:A2|\
F4 FG^GA|f6 e2|dAFA dced|c2B2 B4\
|1 E4 EFGA|c6 B2|ABcB AGEG|G2F2 F2A2\
:|2 gfef g2g2|fede f2f2|edcd eABc|d2f2 d2||
|:f2|\
fedc d2A2|fedc d2A2|B^ABc d2B2|A6 F2\
|1 GFGA B2G2|FEFG A2F2|^G2G2 GEFG|A2B2 c4\
:|2B^ABd g2B2|A^GAd f2d2|cA^GA B2c2|d6|]
